hand-back-left-off.svg

<svg fill="currentColor" viewBox="0 0 24 24"><path d="M22.11 21.46 2.39 1.73 1.11 3l2.1 2.1c-.12.19-.21.4-.21.65V16c0 4.42 3.58 8 8 8 2.93 0 5.58-1.61 6.97-4.14l2.87 2.87zM5.5 12V7.39l1 1V12zm4.5 0H9v-1.11l1 1zm6 .8-2.5-2.5V3.25a1.25 1.25 0 0 1 2.5 0zm3.5 3.48-2.34-2.32 1-2.49c.22-.55.68-.97 1.24-1.16l.79-.26a1 1 0 0 1 1.24 1.32zM9 5.8 6.5 3.3v-.55a1.25 1.25 0 0 1 2.5 0zm3.5 3.5L10 6.8V1.25a1.25 1.25 0 0 1 2.5 0z"/></svg>

<svg  viewBox="0 0 24 24" fill="currentColor"><path  d="M22.11 21.46L2.39 1.73L1.11 3L3.21 5.1C3.09 5.29 3 5.5 3 5.75V16C3 20.42 6.58 24 11 24C13.93 24 16.58 22.39 17.97 19.86L20.84 22.73L22.11 21.46M5.5 12V7.39L6.5 8.39V12H5.5M10 12H9V10.89L10 11.89V12M16 12.8L13.5 10.3V3.25C13.5 2.56 14.06 2 14.75 2S16 2.56 16 3.25V12.8M19.5 16.28L17.16 13.96L18.16 11.47C18.38 10.92 18.84 10.5 19.4 10.31L20.19 10.05C21 9.79 21.74 10.58 21.43 11.37L19.5 16.28M9 5.8L6.5 3.3V2.75C6.5 2.06 7.06 1.5 7.75 1.5S9 2.06 9 2.75V5.8M12.5 9.3L10 6.8V1.25C10 .56 10.56 0 11.25 0S12.5 .56 12.5 1.25V9.3Z"/></svg>
